dist/assets/img/twitter-icon.svg

<svg width="24" height="20" viewBox="0 0 24 20" fill="none" xmlns="http://www.w3.org/2000/svg">
<path d="M21.5156 5.125C21.5469 5.25 21.5625 5.45312 21.5625 5.73438C21.5625 7.39062 21.25 9.04688 20.625 10.7031C20 12.3281 19.1094 13.8281 17.9531 15.2031C16.8281 16.5469 15.3594 17.6406 13.5469 18.4844C11.7344 19.3281 9.73438 19.75 7.54688 19.75C4.79688 19.75 2.28125 19.0156 0 17.5469C0.34375 17.5781 0.734375 17.5938 1.17188 17.5938C3.45312 17.5938 5.5 16.8906 7.3125 15.4844C6.21875 15.4844 5.25 15.1719 4.40625 14.5469C3.59375 13.8906 3.03125 13.0781 2.71875 12.1094C3.03125 12.1406 3.32812 12.1562 3.60938 12.1562C4.04688 12.1562 4.48438 12.1094 4.92188 12.0156C4.17188 11.8594 3.5 11.5469 2.90625 11.0781C2.3125 10.6094 1.84375 10.0469 1.5 9.39062C1.15625 8.70312 0.984375 7.96875 0.984375 7.1875V7.09375C1.67188 7.5 2.40625 7.71875 3.1875 7.75C1.71875 6.75 0.984375 5.375 0.984375 3.625C0.984375 2.75 1.21875 1.92188 1.6875 1.14062C2.90625 2.67188 4.39062 3.89063 6.14062 4.79688C7.92188 5.70312 9.8125 6.20312 11.8125 6.29688C11.75 5.92188 11.7188 5.54688 11.7188 5.17188C11.7188 3.82812 12.1875 2.67188 13.125 1.70312C14.0938 0.734375 15.25 0.25 16.5938 0.25C18.0312 0.25 19.2344 0.765625 20.2031 1.79688C21.3281 1.57812 22.375 1.1875 23.3438 0.625C22.9688 1.78125 22.25 2.6875 21.1875 3.34375C22.125 3.21875 23.0625 2.95313 24 2.54688C23.3125 3.54687 22.4844 4.40625 21.5156 5.125Z" fill="url(#paint0_linear)"/>
<defs>
<linearGradient id="paint0_linear" x1="12" y1="0" x2="12" y2="24" gradientUnits="userSpaceOnUse">
<stop stop-color="#BC9CFF"/>
<stop offset="1" stop-color="#8BA4F9"/>
</linearGradient>
</defs>
</svg>

<svg width="24" height="20" viewBox="0 0 24 20" fill="none" xmlns="http://www.w3.org/2000/svg"><path d="M21.516 5.125c.03.125.047.328.047.61 0 1.656-.313 3.312-.938 4.968a15.729 15.729 0 01-2.672 4.5c-1.125 1.344-2.594 2.438-4.406 3.281-1.813.844-3.813 1.266-6 1.266-2.75 0-5.266-.734-7.547-2.203.344.031.734.047 1.172.047 2.281 0 4.328-.703 6.14-2.11-1.093 0-2.062-.312-2.906-.937a5.085 5.085 0 01-1.687-2.438c.312.032.61.047.89.047.438 0 .875-.047 1.313-.14a4.78 4.78 0 01-2.016-.938A5.211 5.211 0 011.5 9.391a4.86 4.86 0 01-.516-2.204v-.093a4.634 4.634 0 002.204.656C1.718 6.75.983 5.375.983 3.625c0-.875.235-1.703.704-2.484A13.646 13.646 0 006.14 4.797a13.794 13.794 0 005.671 1.5 6.832 6.832 0 01-.093-1.125c0-1.344.469-2.5 1.406-3.469C14.094.734 15.25.25 16.594.25c1.437 0 2.64.516 3.61 1.547a10.015 10.015 0 003.14-1.172c-.375 1.156-1.094 2.063-2.157 2.719.938-.125 1.875-.39 2.813-.797-.688 1-1.516 1.86-2.484 2.578z" fill="url(#paint0_linear)"/><defs><linearGradient id="paint0_linear" x1="12" y1="0" x2="12" y2="24" gradientUnits="userSpaceOnUse"><stop stop-color="#BC9CFF"/><stop offset="1" stop-color="#8BA4F9"/></linearGradient></defs></svg>
